X: 110
T: Now or Never
B: 204 Favourite Country Dances
N: Published by Straight & Skillern, London ca.1775
F: http://imslp.org/wiki/204_Favourite_Country_Dances_(Various) p.55 #110
Z: 2014 John Chambers <jc:trillian.mit.edu>
M: 2/4
L: 1/8
K: D
% - - - - - - - - - - - - - - - - - - - - - - - - -
|:\
FDDF | GEEG | FDDF | f2e2 |\
FDDF | GEEG | FDEC | D4 :|
|:\
afdB | gecA | fdBf | f2e2 |\
afdB | gecA | fdAc | d2D2 :|
% - - - - - - - - - - - - - - - - - - - - - - - - -
%%begintext align
%% Hands across and Back again
%% Cross over 1 Cu. Right and
%% Left at top
%%endtext

%%sep 1 1 500
%%sep 1 1 500
